assets/img/logo-type.svg

<svg alt="Rogie" width="101" height="58" viewBox="0 0 101 58" fill="none" xmlns="http://www.w3.org/2000/svg">
  <path d="M44.8957 30.088C44.8957 40.9319 58.6745 40.8736 58.6745 28.1641C58.6745 25.4823 56.6047 20.9348 52.1695 20.9348C48.0299 20.9348 44.8957 25.0159 44.8957 30.088ZM54.8306 29.6799C54.8306 35.9181 49.0353 35.4517 49.0353 30.2629C49.0353 24.6078 54.8306 24.7244 54.8306 29.6799ZM47.202 39.4161L47.4386 39.7659C41.4066 44.0218 34.4877 41.1651 30.4664 36.2679C30.8212 40.5238 31.59 44.7797 32.8318 48.9191C32.8318 48.9191 31.176 49.9102 29.5202 50.9596C27.6278 45.0129 26.3268 40.2323 25.3215 34.9853C23.6065 35.6849 21.8916 36.3262 20.2357 36.8509C20.0583 35.9181 19.8809 35.0436 19.7035 34.2273C21.5367 33.5277 23.2517 32.8281 24.9075 32.0702C24.1387 26.8232 23.6657 20.8765 23.4882 12.8311C26.0311 11.5485 28.6331 10.3825 31.2943 9.44965C30.4664 16.0376 30.1115 22.6839 30.1707 29.3301C47.202 19.3607 50.2771 5.95163 35.7887 5.95163C26.6816 5.95163 11.0104 12.9477 2.08079 19.0692C2.08079 19.0692 1.13461 14.4052 0.247559 8.98325C4.20971 6.88443 18.8165 0.121582 33.0092 0.121582C45.1322 0.121582 50.3363 5.07712 50.3363 10.8489C50.3363 19.4773 41.4066 27.173 30.8803 32.42C33.7189 36.4428 38.5089 37.4922 43.1807 34.5772C43.8904 36.6177 45.3097 38.3667 47.202 39.4161ZM73.1039 34.0524C74.3457 18.3696 74.2866 16.6789 74.8188 12.1315C74.8188 12.1315 71.6254 12.5396 69.0826 13.1809C69.1417 14.2886 69.2008 15.4546 69.26 16.6206C68.4912 16.1542 67.6042 15.9793 66.658 15.9793C57.8466 15.9793 57.9649 31.837 65.7118 31.837C66.9537 31.837 68.1364 31.3706 69.0826 30.5544C69.0234 32.0702 68.9052 33.6443 68.846 35.2185C56.5456 39.008 49.4492 46.0623 49.4492 51.3094C49.4492 55.0406 51.519 57.4892 56.0725 57.4892C63.228 57.4892 69.7331 49.9685 71.6254 42.0396C70.2062 42.1562 68.7869 42.3894 67.4267 42.7392C63.5237 52.4754 59.6798 54.8657 55.7768 54.8657C53.7662 54.8657 52.4652 53.8746 52.4652 51.8341C52.4652 45.8291 63.4055 39.0663 78.0713 39.0663C89.9578 39.0663 98.4735 41.923 98.4735 41.923C99.7745 35.8015 100.248 33.3528 100.248 33.3528C97.9412 32.9447 85.1677 31.3706 73.1039 34.0524ZM67.2493 28.2807C63.0506 28.2807 63.4055 20.5267 67.1311 20.5267C67.545 20.5267 67.959 20.585 68.3138 20.7599C68.6686 20.9348 69.0234 21.168 69.26 21.5178C69.26 23.4418 69.2008 25.3657 69.1417 27.4645C68.9052 27.756 68.6095 27.9309 68.2547 28.1058C68.0181 28.2224 67.6042 28.2807 67.2493 28.2807ZM77.4208 7.52574C77.4208 7.05934 77.5391 6.65123 77.7165 6.24313C77.8939 5.83503 78.1896 5.48522 78.5444 5.19372C78.8992 4.90222 79.2541 4.66902 79.7272 4.49412C80.1411 4.37752 80.6142 4.31921 81.0873 4.31921C81.5604 4.37752 81.9744 4.49412 82.3883 4.66902C82.8023 4.90222 83.1571 5.19372 83.4528 5.54352C83.7484 5.89333 83.9259 6.30143 84.0441 6.70953C84.1624 7.11764 84.2215 7.58404 84.1624 8.05044C84.1624 8.51685 84.0441 8.92495 83.8667 9.33305C83.6893 9.74116 83.3936 10.091 83.0388 10.3825C82.684 10.674 82.3292 10.9072 81.8561 11.0821C81.4421 11.1987 80.969 11.257 80.4959 11.257C80.0228 11.1987 79.6089 11.0821 79.1949 10.9072C78.781 10.674 78.4261 10.3825 78.1305 10.0327C77.8348 9.68286 77.6574 9.27475 77.5391 8.86665C77.4208 8.40025 77.3617 7.99214 77.4208 7.52574ZM83.4528 20.002C84.1624 20.4101 84.9312 20.7016 85.7591 20.9931C85.7591 24.9576 88.302 28.0475 91.9093 28.0475C94.393 28.0475 96.7585 26.2402 98.0595 24.7244L96.8176 23.2086C96.8176 23.2086 95.1618 25.0159 93.3877 25.0159C91.8502 25.0159 90.3126 24.1414 90.0169 21.926C94.5113 22.2758 98.9466 19.8854 98.9466 15.5712C98.9466 13.1226 97.0542 11.3153 94.393 11.3153C90.4309 11.3153 87.001 14.9882 86.0548 18.836C85.4043 18.6028 84.8129 18.3696 84.2215 18.0781C84.1033 18.4279 83.4528 20.002 83.4528 20.002ZM95.4575 16.0959C95.4575 17.67 93.8017 19.7105 90.0761 19.5939C90.9631 14.4052 95.4575 13.1226 95.4575 16.0959ZM76.4155 21.4012C76.4155 18.7194 76.7112 16.0959 77.4208 13.4724H77.5982C79.3723 14.0554 81.2647 13.9971 82.9797 13.2392C81.6787 16.6789 80.969 19.9437 80.969 22.509C80.969 25.5989 82.7431 26.4151 84.5764 23.9665C84.7538 24.6661 85.0495 25.3657 85.4634 26.007C84.399 27.5811 82.9205 28.5722 81.2056 28.5722C78.367 28.5722 76.4155 25.6572 76.4155 21.4012Z" fill="white"/>
</svg>

<svg width="101" height="58" fill="none" xmlns="http://www.w3.org/2000/svg"><path d="M44.896 30.088c0 10.844 13.779 10.786 13.779-1.924 0-2.682-2.07-7.23-6.505-7.23-4.14 0-7.274 4.082-7.274 9.154zm9.935-.408c0 6.238-5.796 5.772-5.796.583 0-5.655 5.796-5.539 5.796-.583zm-7.629 9.736l.237.35c-6.032 4.256-12.951 1.4-16.973-3.498.355 4.256 1.124 8.512 2.366 12.651 0 0-1.656.991-3.312 2.04-1.892-5.946-3.193-10.727-4.198-15.974-1.715.7-3.43 1.341-5.086 1.866-.178-.933-.355-1.807-.533-2.624 1.834-.7 3.549-1.399 5.204-2.157-.768-5.247-1.241-11.194-1.419-19.239 2.543-1.282 5.145-2.448 7.806-3.381-.828 6.588-1.183 13.234-1.123 19.88 17.031-9.97 20.106-23.378 5.618-23.378-9.107 0-24.779 6.996-33.708 13.117 0 0-.946-4.664-1.833-10.086C4.21 6.884 18.817.122 33.009.122c12.123 0 17.327 4.955 17.327 10.727 0 8.628-8.93 16.324-19.456 21.571 2.839 4.023 7.629 5.072 12.3 2.157.71 2.04 2.13 3.79 4.022 4.84zm25.902-5.364c1.242-15.682 1.183-17.373 1.715-21.92 0 0-3.194.408-5.736 1.049.059 1.108.118 2.274.177 3.44-.769-.467-1.656-.642-2.602-.642-8.811 0-8.693 15.858-.946 15.858 1.242 0 2.424-.466 3.37-1.283-.059 1.516-.177 3.09-.236 4.665-12.3 3.789-19.397 10.843-19.397 16.09 0 3.732 2.07 6.18 6.623 6.18 7.156 0 13.661-7.52 15.553-15.45-1.419.117-2.838.35-4.198.7-3.903 9.736-7.747 12.127-11.65 12.127-2.01 0-3.312-.991-3.312-3.032 0-6.005 10.94-12.768 25.606-12.768 11.887 0 20.403 2.857 20.403 2.857 1.3-6.122 1.774-8.57 1.774-8.57-2.307-.408-15.08-1.982-27.144.7zm-5.855-5.771c-4.198 0-3.843-7.754-.118-7.754.414 0 .828.058 1.183.233.355.175.71.408.946.758 0 1.924-.06 3.848-.118 5.947-.237.291-.532.466-.887.64-.237.117-.65.176-1.006.176zM77.421 7.526c0-.467.118-.875.295-1.283.178-.408.474-.758.828-1.05.355-.29.71-.524 1.183-.699a5.108 5.108 0 0 1 1.36-.175 4.75 4.75 0 0 1 1.301.35 3.86 3.86 0 0 1 1.065.875c.295.35.473.757.591 1.166.118.408.178.874.118 1.34 0 .467-.118.875-.295 1.283-.178.408-.473.758-.828 1.05-.355.291-.71.524-1.183.7a5.11 5.11 0 0 1-1.36.174 4.751 4.751 0 0 1-1.301-.35 3.86 3.86 0 0 1-1.064-.874c-.296-.35-.474-.758-.592-1.166-.118-.467-.177-.875-.118-1.341zm6.032 12.476c.71.408 1.478.7 2.306.991 0 3.965 2.543 7.055 6.15 7.055 2.484 0 4.85-1.808 6.15-3.324l-1.241-1.515s-1.656 1.807-3.43 1.807c-1.538 0-3.075-.875-3.371-3.09 4.494.35 8.93-2.04 8.93-6.355 0-2.448-1.893-4.256-4.554-4.256-3.962 0-7.392 3.673-8.338 7.521a17.17 17.17 0 0 1-1.834-.758c-.118.35-.768 1.924-.768 1.924zm12.004-3.906c0 1.574-1.655 3.614-5.38 3.498.886-5.189 5.38-6.471 5.38-3.498zM76.416 21.4c0-2.682.295-5.305 1.005-7.929h.177c1.774.583 3.667.525 5.382-.233-1.301 3.44-2.011 6.705-2.011 9.27 0 3.09 1.774 3.906 3.607 1.457.178.7.474 1.4.887 2.041-1.064 1.574-2.542 2.565-4.257 2.565-2.839 0-4.79-2.915-4.79-7.17z" fill="#fff"/></svg>
